svg/color/bpro.svg

<?xml version="1.0" encoding="UTF-8" ?>
<!DOCTYPE svg PUBLIC "-//W3C//DTD SVG 1.1//EN" "http://www.w3.org/Graphics/SVG/1.1/DTD/svg11.dtd">
<svg width="250pt" height="250pt" viewBox="0 0 250 250" version="1.1" xmlns="http://www.w3.org/2000/svg">
<g id="#0b0513ff">
<path fill="#0b0513" opacity="1.00" d=" M 0.00 0.00 L 250.00 0.00 L 250.00 250.00 L 0.00 250.00 L 0.00 0.00 M 113.90 58.93 C 105.69 67.38 97.22 75.57 88.99 84.00 C 96.52 91.81 104.33 99.33 111.93 107.08 C 115.02 110.20 118.42 113.62 122.98 114.27 C 126.73 114.27 130.39 112.67 133.00 109.99 C 139.92 103.24 146.55 96.20 153.55 89.54 C 155.50 87.62 157.32 85.57 158.94 83.36 C 149.56 74.99 141.10 65.65 132.06 56.93 C 129.42 54.40 125.67 53.07 122.02 53.67 C 118.57 53.92 116.21 56.70 113.90 58.93 M 138.43 116.43 C 133.52 120.78 133.59 129.23 138.45 133.58 C 147.34 142.35 156.03 151.31 164.99 160.00 C 180.67 144.69 195.97 128.99 211.58 113.61 C 216.60 109.83 217.04 101.81 212.56 97.46 C 203.38 88.31 194.35 79.00 185.00 70.04 C 169.36 85.38 153.99 101.00 138.43 116.43 M 68.98 103.96 C 61.43 111.39 54.10 119.06 46.42 126.36 C 41.32 131.06 34.84 135.62 33.76 142.99 C 33.98 146.63 36.31 149.71 38.88 152.13 C 47.70 160.54 55.94 169.55 64.93 177.79 C 78.44 164.68 91.63 151.25 104.95 137.96 C 107.42 135.41 110.43 133.22 112.05 129.99 C 113.64 125.23 112.96 119.43 109.04 115.97 C 100.37 107.42 91.99 98.58 82.97 90.39 C 77.72 94.28 73.60 99.39 68.98 103.96 M 122.40 135.72 C 117.50 136.52 114.16 140.53 110.81 143.82 C 103.67 151.34 96.21 158.55 89.00 166.01 C 97.04 174.30 105.42 182.25 113.40 190.60 C 115.48 192.60 117.40 195.03 120.22 196.00 C 124.59 197.33 129.50 195.96 132.56 192.57 C 141.27 183.71 150.33 175.17 158.79 166.07 C 149.86 156.71 140.67 147.59 131.48 138.49 C 129.17 136.11 125.61 135.35 122.40 135.72 Z" />
</g>
<g id="#26c067ff">
<path fill="#26c067" opacity="1.00" d=" M 113.90 58.93 C 116.21 56.70 118.57 53.92 122.02 53.67 C 125.67 53.07 129.42 54.40 132.06 56.93 C 141.10 65.65 149.56 74.99 158.94 83.36 C 157.32 85.57 155.50 87.62 153.55 89.54 C 146.55 96.20 139.92 103.24 133.00 109.99 C 130.39 112.67 126.73 114.27 122.98 114.27 C 118.42 113.62 115.02 110.20 111.93 107.08 C 104.33 99.33 96.52 91.81 88.99 84.00 C 97.22 75.57 105.69 67.38 113.90 58.93 Z" />
<path fill="#26c067" opacity="1.00" d=" M 138.43 116.43 C 153.99 101.00 169.36 85.38 185.00 70.04 C 194.35 79.00 203.38 88.31 212.56 97.46 C 217.04 101.81 216.60 109.83 211.58 113.61 C 195.97 128.99 180.67 144.69 164.99 160.00 C 156.03 151.31 147.34 142.35 138.45 133.58 C 133.59 129.23 133.52 120.78 138.43 116.43 Z" />
<path fill="#26c067" opacity="1.00" d=" M 68.98 103.96 C 73.60 99.39 77.72 94.28 82.97 90.39 C 91.99 98.58 100.37 107.42 109.04 115.97 C 112.96 119.43 113.64 125.23 112.05 129.99 C 110.43 133.22 107.42 135.41 104.95 137.96 C 91.63 151.25 78.44 164.68 64.93 177.79 C 55.94 169.55 47.70 160.54 38.88 152.13 C 36.31 149.71 33.98 146.63 33.76 142.99 C 34.84 135.62 41.32 131.06 46.42 126.36 C 54.10 119.06 61.43 111.39 68.98 103.96 Z" />
<path fill="#26c067" opacity="1.00" d=" M 122.40 135.72 C 125.61 135.35 129.17 136.11 131.48 138.49 C 140.67 147.59 149.86 156.71 158.79 166.07 C 150.33 175.17 141.27 183.71 132.56 192.57 C 129.50 195.96 124.59 197.33 120.22 196.00 C 117.40 195.03 115.48 192.60 113.40 190.60 C 105.42 182.25 97.04 174.30 89.00 166.01 C 96.21 158.55 103.67 151.34 110.81 143.82 C 114.16 140.53 117.50 136.52 122.40 135.72 Z" />
</g>
</svg>

<?xml version="1.0" encoding="utf-8"?>
<!-- Generator: Adobe Illustrator 26.0.3, SVG Export Plug-In . SVG Version: 6.00 Build 0)  -->
<svg version="1.1" id="Layer_1" xmlns="http://www.w3.org/2000/svg" xmlns:xlink="http://www.w3.org/1999/xlink" x="0px" y="0px"
	 viewBox="0 0 250 250" style="enable-background:new 0 0 250 250;" xml:space="preserve">
<style type="text/css">
	.st0{fill:#0B0513;}
	.st1{fill:#26C067;}
</style>
<circle class="st0" cx="125" cy="125" r="125"/>
<g id="_x23_26c067ff">
	<path class="st1" d="M113.9,58.9c2.3-2.2,4.7-5,8.1-5.3c3.7-0.6,7.4,0.7,10,3.3c9,8.7,17.5,18.1,26.9,26.4
		c-1.6,2.2-3.4,4.3-5.4,6.2c-7,6.7-13.6,13.7-20.6,20.4c-2.6,2.7-6.3,4.3-10,4.3c-4.6-0.6-8-4.1-11.1-7.2
		C104.3,99.3,96.5,91.8,89,84C97.2,75.6,105.7,67.4,113.9,58.9z"/>
	<path class="st1" d="M138.4,116.4C154,101,169.4,85.4,185,70c9.4,9,18.4,18.3,27.6,27.4c4.5,4.3,4,12.4-1,16.2
		C196,129,180.7,144.7,165,160c-9-8.7-17.7-17.6-26.5-26.4C133.6,129.2,133.5,120.8,138.4,116.4z"/>
	<path class="st1" d="M69,104c4.6-4.6,8.7-9.7,14-13.6c9,8.2,17.4,17,26.1,25.6c3.9,3.5,4.6,9.3,3,14c-1.6,3.2-4.6,5.4-7.1,8
		c-13.3,13.3-26.5,26.7-40,39.8c-9-8.2-17.2-17.2-26-25.7c-2.6-2.4-4.9-5.5-5.1-9.1c1.1-7.4,7.6-11.9,12.7-16.6
		C54.1,119.1,61.4,111.4,69,104z"/>
	<path class="st1" d="M122.4,135.7c3.2-0.4,6.8,0.4,9.1,2.8c9.2,9.1,18.4,18.2,27.3,27.6c-8.5,9.1-17.5,17.6-26.2,26.5
		c-3.1,3.4-8,4.8-12.3,3.4c-2.8-1-4.7-3.4-6.8-5.4c-8-8.4-16.4-16.3-24.4-24.6c7.2-7.5,14.7-14.7,21.8-22.2
		C114.2,140.5,117.5,136.5,122.4,135.7z"/>
</g>
</svg>
